X:1
T:Moment Musical No. 3 in D Major
T:Moment Musical No. 3 in B Minor
T:from Moments Musicaux, Op. 16
T:Sergei Rachmaninoff (1873-1943) 
C:Sergei Rachmaninoff (1873-1943)
%%score { ( 1 2 ) | ( 3 4 ) }
L:1/8
Q:1/4=56
M:4/4
K:D
V:1 bass nm="Grand Piano" snm="Pno."
V:2 bass 
V:3 bass 
V:4 bass 
V:1
"^Andante cantabile."!p!!<(! ([B,D]>[^A,C]!<)! | %1
!mp!!>(! [B,D]2!>)!!p! [CE]2) z2!<(! ([B,D]>[^A,C]!<)! | %2
!mp!!>(! (3[B,D][^A,C][B,D]!>)!!p! [CE]2) z2!<(! (3(!tenuto![B,D]!tenuto![CE]!tenuto![DF]!<)! || %3
[M:3/4][K:treble]!mf! !tenuto![FA]4)"_dim." ([EG]>[FA] || %4
[M:4/4]!p! .[EG]2 .[DF]2) z2!mf! (3(!tenuto![DF]!tenuto![CE]!tenuto![B,D] | %5
 !>![DF]2 [CE]2)!>(! (!>!.[C=E]3 [B,D])!>)! |[K:bass]!p! (.C2 .^A,2) z2!<(! ([B,D]>[A,C]!<)! | %7
!mp!!>(! [B,D]2!>)!!p! ([CE]2) (3z z [B,D]!<(! (3[^A,C][^G,B,][A,C]!<)! | %8
!mp!!>(! (3[B,D][^A,C][B,D]!>)!!p! [CE]2) z2!p! (3!tenuto![B,D]!tenuto![CE]!tenuto![DF] | %9
[K:treble] !tenuto![FA]4 (3:2:2([EG]2 [DF])"_cresc." (3([EG][FA][GB]) | %10
 ([GB]2 [FA]2-) (3:2:2[FA]2 [EG]!mf!!<(! (3([FA][GB][A=c])!<)! | %11
!f! (3:2:2([A=c]2 [GB])[Q:1/4=55]"_dim. e rit." (3([GB][FA][EG])[Q:1/4=54] (3:2:2([GB]2 [FA])[Q:1/4=53] (3([FA][EG][DF]) | %12
[M:3/4][Q:1/4=52] (!tenuto![G,B,FA]!tenuto![G,^A,EG][Q:1/4=51]!tenuto![F,B,DF]!tenuto![G,CE])[K:bass]!mp![Q:1/4=50]!>(! (3:2:2([^G,B,D]2 [C,^E,C])!>)! | %13
[M:4/4]!p![Q:1/4=49] (.[C,=E,^A,]2[Q:1/4=48] .[D,B,]2) z2!mf![Q:1/4=56]"^a tempo" ([A,C]>[^G,B,] |: %14
 [^A,C]2 ([B,D]2) (3z z [A,C] (3[^G,B,][F,A,][G,B,] | %15
!<(! [^A,C]2!<)!!f! [B,D]2) z2!p! (3:2:2([^G,B,]2 [=A,C] | %16
 (3[B,D][A,C][B,D] .[CE].[B,D] !tenuto![A,C]2)!mf! (3:2:2([B,D]2 [CE]) | %17
 ([CE]2 [D=F]2-) (3:2:2[DF]2 ([CE] (3[B,D][A,C][B,D] | %18
 [B,D]2 [CE]2-) (3:2:2[CE]2!<(! ([B,D] (3[A,C][B,D][CE]!<)! | %19
[K:treble]!f! [^D^F]2-) (3[DF][^B,D][CE] (3[DF][CE][DF]!>(! [E^G][DF]!>)! | %20
[M:2/4]!mf! !tenuto![CE]2!f! (3:2:2([^DF]2 [E^G]) | %21
[M:4/4] ([E^G]2 [FA]2-) (3:2:2[FA]2 ([EG]!>(! (3[^DF][CE][DF])!>)! | %22
!mf! ([^DF]2 ([E^G]2) (3z z [EG]"_cresc." (3[FA][^EG][FA] | %23
!f! (3[^GB][FA]"_dim."[GB] .[Ac].[GB]!p! !tenuto![FA]2)!f! (3:2:2([GB]2 [Ac]) | %24
 ([Ac]2 [Bd]2-) (3:2:2[Bd]2 ([Ac] (3[^GB][FA][GB]) | %25
 ([^GB]2 (3:2:2[Ac]2) ([GB]"_cresc." (3[Ac][GB][Ac] (3[Bd][^Ac][Bd]) | %26
 (3([ce][Bd][ce] !tenuto![df]!tenuto![ce] !tenuto![Bd]2)!ff![Q:1/4=55] !>![e^g]!>![df] | %27
[Q:1/4=54]!>(! !tenuto![ce]/!tenuto![Bd]/!tenuto![Ac]/!tenuto![^GB]/!>)!!mf![Q:1/4=53] !tenuto![FA]2!f![Q:1/4=52] !>![ce]!>![Bd][Q:1/4=51]!>(! (3!tenuto![Ac]!tenuto![GB]!tenuto![FA]!>)! | %28
!p![Q:1/4=50] !tenuto![FA]2!mf![Q:1/4=49]!>(! (3!tenuto![Ac]!tenuto![^GB]!tenuto![FA]!>)!!pp![Q:1/4=48] (.[CFA]2[Q:1/4=47] .[^G,C^EG]2) | %29
[Q:1/4=56]"^a tempo" z8 | [=G,=E=G]8 | [G,EG]8 | z4 z2[K:bass]!mf! ([D,B,]>[C,^A,] | %33
 [D,B,]2 [E,C]2) z2 ([D,B,]>[C,^A,] | %34
 (3!tenuto![D,B,]!tenuto![C,^A,]!tenuto![D,B,] !tenuto![E,C]2) z2"^cresc." (3!tenuto![D,B,]!tenuto![E,C]!tenuto![F,D] | %35
[M:3/4]!f! !tenuto![A,F]2 z2"^dim." ([G,E]>[A,F] | %36
[M:4/4] !tenuto![G,E]2!mp! !tenuto![F,D]2) z2!mf! (3!tenuto![F,D]!tenuto![E,C]!tenuto![D,B,] | %37
!>(! (!tenuto![F,D]2 [E,C]2) (!>![E,C]3 [D,B,])!>)! | %38
!p! (.[C,E,B,]2 .[C,F,^A,]2) z2!mf! ([B,D]>[A,C] | %39
 [B,D]2 [CE]2-) (3:2:2[CE]2 ([B,D] (3[^A,C][^G,B,][A,C] | %40
 [B,D]2 [CE]4)"_cresc." (3!tenuto![B,D]!tenuto![CE]!tenuto![DF] | %41
[K:treble] !tenuto![FA]4 (3:2:2([EG]2 [DF]) (3([EG][FA][GB]) | %42
 ([GB]2 [FA]2-) (3:2:2[FA]2 [EG] (3([FA][GB][A=c]) | %43
!f! (3:2:2([A=c]2 [GB])[Q:1/4=55]"_dim. e rit." (3([GB][FA][EG])[Q:1/4=54] (3:2:2([GB]2 [FA])[Q:1/4=53] (3([FA][EG][DF]) | %44
[M:3/4][Q:1/4=52] (!tenuto![G,B,FA]!tenuto![G,^A,EG][Q:1/4=51]!tenuto![F,B,DF]!tenuto![G,CE])[K:bass][Q:1/4=50] (3:2:2([^G,B,D]2 [C,^E,C]) |1 %45
[M:4/4]!p!"_ad libitum"[Q:1/4=49] (.[C,=E,^A,]2[Q:1/4=48] .[D,B,]2) z2[Q:1/4=56]"^a tempo"!mf! ([A,C]>[^G,B,]) :|2 %46
!p! (.[C,=E,^A,]2 .[D,B,]2)[K:treble] z2!ff![Q:1/4=55] !>![=ac']!>![gb] || %47
[Q:1/4=54]!>(! !tenuto![fa]/!tenuto![eg]/!tenuto![df]/!tenuto![ce]/!>)!!mf![Q:1/4=53] !tenuto![Bd]2!f![Q:1/4=52] !>![fa]!>![eg][Q:1/4=51]!>(! (3!tenuto![df]!tenuto![ce]!tenuto![Bd]!>)! | %48
!p![Q:1/4=50] !tenuto![Bd]2!mf![Q:1/4=49]!>(! (3!tenuto![df]!tenuto![ce]!tenuto![Bd]!>)!!pp![Q:1/4=48] (.[Bd]2[Q:1/4=47] .[F^Ac]2) | %49
 z2!f![Q:1/4=55] !>![=Ac]!>![GB][Q:1/4=54]!>(! !tenuto![FA]/!tenuto![EG]/!tenuto![DF]/!tenuto![CE]/!>)!!p![Q:1/4=53] !tenuto![B,D]2 | %50
!mf![Q:1/4=52] !tenuto![FA]!tenuto![EG][Q:1/4=51]!>(! (3!tenuto![DF]!tenuto![CE]!tenuto![B,D]!>)!!p![Q:1/4=50] !tenuto![B,D]2!mp![Q:1/4=49]!>(! (3([DF][CE][B,D])!>)! | %51
[M:2/4][K:bass]!pp![Q:1/4=48] (.[B,D]2[Q:1/4=47] .[F,^A,C]2) | %52
[M:4/4] x8[Q:1/4=56][Q:1/4=55][Q:1/4=54] | %53
[Q:1/4=53] !tenuto![B,,G,B,]8[Q:1/4=52][Q:1/4=51][Q:1/4=50] | %54
[M:2/4][Q:1/4=49]!mf!"_dim." !tenuto![^A,,-G,^A,-]2[Q:1/4=48] [A,,F,A,]2 | %55
[M:4/4][Q:1/4=47]!ppp! [F,B,]8[Q:1/4=46][Q:1/4=45] |] %56
V:2
 [D,F,]2 | G,4 x2 [D,F,]2 | G,4 x2 F,2 ||[M:3/4][K:treble] [G,B,D]4 [G,A,C]2 || %4
[M:4/4] (.[G,A,C]2 .[F,A,]2) z4 | G,4 ^G,4 |[K:bass] (.[C,^E,B,]2 .[C,F,]2) x2 [D,F,]2 | %7
 G,4 z2 D,2 | G,4 x2 F,2 |[K:treble] [G,B,D]6 [G,A,C]2 | [A,D]6 [A,B,^D]2 | %11
 [B,E]2 [G,C]2 [A,D]2 [F,B,]2 |[M:3/4] x4[K:bass] x2 |[M:4/4] x6 C,2 |: D,4 z2 C,2 | D,4 x2 E,2 | %16
 E,2- (E,.=F, !tenuto!E,2) z2 | =F,6 E,2 | =F,6 E,2 |[K:treble] A,2 ^G,4- G,=A, | %20
[M:2/4] !tenuto!^G,2 z2 |[M:4/4] A,6 A,2 | ^G,4 z2 B,2 | A,2- (A,.[B,C] !tenuto![A,C]2) z2 | %24
 D6 D2 | C6 E2 | D2- (D!tenuto![EF] !tenuto![DF]2) ^GF- | F2 !tenuto!C2 [DF]4 | !tenuto!C2 D2 z4 | %29
 z2!mf! (C>B,) (C2 D2-) | D2 (C>B,) (3(CB,C) D2- | D2!p! (C>B, !tenuto!C2 !tenuto!D2- | %32
 D2 C4)[K:bass] F,2 | G,4 x2 F,2 | G,6 F,2 |[M:3/4] [B,D]4 C2 |[M:4/4] C2 A,2 z2 F,2 | G,4 G,4 | %38
 x6 [D,F,]2 | G,4 z2 D,2 | =G,6 F,2 |[K:treble] [G,B,D]6 [G,A,C]2 | [A,D]6 [A,B,^D]2 | %43
 [B,E]2 [G,C]2 [A,D]2 [F,B,]2 |[M:3/4] x4[K:bass] x2 |1[M:4/4] x6 C,2 :|2 x4[K:treble] x2 cB- || %47
 B2 !tenuto!F2 AG- G2 | !tenuto!F2 G2 (.F2 .C2) | x2 [CD-][B,-D] B,2 !tenuto!F,2 | %50
 [G,B,]4 !tenuto!F,2 G,2 |[M:2/4][K:bass] (.F,2 .C,2) |[M:4/4] z2!mf! (D,>C, D,2 E,2-) | %53
 E,2 (D,>C, (3D,C,D, E,2-) |[M:2/4] E,2 E,2- |[M:4/4] E,2 !tenuto!D,>!tenuto!C, !tenuto!D,4 |] %56
V:3
 [B,,,F,,B,,]2 | [E,,B,,]4 z2 [B,,,F,,B,,]2 | [E,,B,,]4 z2 [B,,,F,,B,,]2 || %3
[M:3/4] [E,,,E,,]4 [A,,,A,,]2 ||[M:4/4] [D,,,D,,]4 z4 | [E,,,E,,]4 [^E,,,^E,,]4 | %6
 (.[^G,,,^G,,]2 .[F,,,F,,]2) z2 [B,,,F,,B,,]2 | [E,,B,,]4 z2 [B,,,F,,]2 | [E,,B,,]4 z2 [B,,,B,,]2 | %9
 [E,,,E,,]6 [A,,,A,,]2 | [F,,,F,,]6 [B,,,B,,]2 | [E,,,E,,]2 [A,,,A,,]2 [D,,,D,,]2 [G,,,G,,]2 | %12
[M:3/4] [C,,,C,,]2 [D,,,D,,][E,,,E,,] (3:2:2([^E,,,^E,,]2 [^G,,,^G,,]) | %13
[M:4/4] ((.[F,,,F,,]2 .[B,,,F,,]2)) z2 [F,,,F,,]2 |: [B,,,F,,]4 z2 [F,,,F,,]2 | %15
 [B,,,F,,]4 z2 E,,2 | [A,,,A,,]2- ([A,,,A,,].[D,,A,,] !tenuto![A,,,A,,]2) z2 | %17
 [D,,A,,]6 [A,,,A,,]2 | [D,,A,,]6 [A,,,A,,]2 | %19
 !tenuto![F,,,F,,]2 !tenuto![^G,,,^G,,]2 !tenuto!^A,,2 !tenuto!^B,,2 |[M:2/4] !tenuto!C,2 z2 | %21
[M:4/4] [F,,C,]6 [B,,,B,,]2 | [E,,B,,]4 z2 [C,,C,]2 | C,2 (.^D,.^E, !tenuto!F,2) z2 | %24
 [B,,F,]6 [E,,E,]2 | [A,,E,]6 [F,,F,]2 | %26
 F,2 (!tenuto!^G,!tenuto!^A, !tenuto!B,2) !arpeggio![B,,,B,,F,=A,D]2- | %27
 [B,,,B,,F,A,D]2 !tenuto![F,,C,A,]2 [B,,F,]4 | !tenuto![F,,C,A,]2 [B,,F,]2 (.[C,A,]2 .[C,,C,]2) | %29
 z8 | [E,,B,,]8 | [E,,B,,]8 | z4 z2!pp! .[B,,,B,,].[F,,,F,,] | %33
 .[G,,,G,,].[F,,,F,,].[G,,,G,,].[E,,,E,,] !>!.[G,,,G,,].[B,,,,B,,,].[B,,,B,,].[F,,,F,,] | %34
 .[G,,,G,,].[F,,,F,,].[G,,,G,,].[E,,,E,,] !>!.[G,,,G,,].[B,,,,B,,,].[B,,,B,,].[D,,,D,,] | %35
[M:3/4]"^cresc." .[E,,,E,,].[F,,,F,,] .[G,,,G,,].[A,,,A,,]!mf!"^dim." .[B,,,B,,].[A,,,A,,] | %36
[M:4/4]!pp! .[B,,,,B,,,].[C,,,C,,]"^cresc.".[D,,,D,,].[E,,,E,,] .[F,,,F,,].[G,,,G,,]!mp!"^dim."!>!.[A,,,A,,].[G,,,G,,] | %37
!pp! .[E,,,E,,].[F,,,F,,].[G,,,G,,].[F,,,F,,] .[G,,,G,,].[E,,,E,,].[F,,,F,,].[A,,,A,,] | %38
 !>!.[G,,,G,,].[C,,,C,,].[F,,,F,,].[E,,,E,,] .[D,,,D,,].[C,,,C,,] [B,,,,B,,,]2 | %39
 (B,,2- B,,>^A,, B,,2) z2 | (B,,2- (3B,,!tenuto!=A,,!tenuto!^A,, B,,2) z2 | %41
 !tenuto![E,,,E,,]2- (3[E,,,E,,]!tenuto![F,,,F,,]!tenuto![G,,,G,,] !tenuto![B,,,B,,]2 (3:2:2!tenuto![A,,,A,,]2 !tenuto![G,,,G,,] | %42
 !tenuto![F,,,F,,]2- (3[F,,,F,,]!tenuto![G,,,G,,]!tenuto![A,,,A,,] !tenuto![=C,,=C,]2 (3:2:2!tenuto![B,,,B,,]2 !tenuto![^D,,,^D,,] | %43
 (3!tenuto![E,,,E,,]!tenuto![F,,,F,,]!tenuto![G,,,G,,] (3:2:2!tenuto![A,,,A,,]2 !tenuto![C,,,C,,] (3!tenuto![D,,,D,,]!tenuto![E,,,E,,]!tenuto![F,,,F,,] (3:2:2!tenuto![G,,,G,,]2 !tenuto![B,,,,B,,,] | %44
[M:3/4] !tenuto![C,,,C,,]2 !tenuto![D,,,D,,]!tenuto![E,,,E,,] (3:2:2([^E,,,^E,,]2 [F,,,F,,]) |1 %45
[M:4/4] (.[F,,,F,,]2 .[B,,,F,,]2) z4 :|2 (.[F,,,F,,]2 .[B,,,F,,]2) z2 !arpeggio![E,,E,B,DG]2- || %47
 [E,,E,B,DG]2 !tenuto![B,,F,D]2 FE- E2 | !tenuto![B,,F,D]2 [E,B,]2 (.[F,D]2 .[F,,C,^A,]2) | %49
 z2 [E,,B,,G,]4 [B,,,B,,]2 | [E,,B,,]4 [B,,,B,,]2 [E,,B,,]2 |[M:2/4] (.[F,,D,]2 .[F,,,F,,]2) | %52
[M:4/4] z8 | [G,,,G,,]8 |[M:2/4] [E,,,E,,]2 [F,,,F,,]2 |[M:4/4] [B,,,F,,B,,]8 |] %56
V:4
 x2 | x8 | x8 ||[M:3/4] x6 ||[M:4/4] x8 | x8 | x8 | x8 | x8 | x8 | x8 | x8 |[M:3/4] x6 | %13
[M:4/4] x8 |: x8 | x8 | x8 | x8 | x8 | x4 C,,4 |[M:2/4] !tenuto!C,,2 x2 |[M:4/4] x8 | x8 | %23
 F,,6 x2 | x8 | x8 | B,,6 x2 | x8 | x8 | x8 | x8 | x8 | x8 | x8 | x8 |[M:3/4] x6 |[M:4/4] x8 | x8 | %38
 x8 | F,,6 [B,,,,B,,,]2 | E,,6 B,,,2 | x8 | x8 | x8 |[M:3/4] x6 |1[M:4/4] x8 :|2 x8 || x4 [E,B,]4 | %48
 x8 | x8 | x8 |[M:2/4] x4 |[M:4/4] x8 | x8 |[M:2/4] x4 |[M:4/4] x8 |] %56

